X:1
T: Paddy O'Rafferty
C:
R:Jig
Q:180
K:A
M:6/8
L:1/16
|:A2c2E2 E2C2E2|E2d2c2 B2A2B2|A2c2E2 E2C2E2|A2B2A2 A2F2E2|
A2c2E2 E2C2E2|E2d2c2 B2A2B2|e2c2A2 f2d2A2|e2c2A2 A2F2E2|
A2c2e2 A2c2e2|A2c2e2 f2d2B2|A2c2e2 f2g2a2|A2c2B2 A2F2E2|
A2c2e2 A2c2e2|A2c2e2 f2g2a2|a2g2f2 e2d2c2|B2c2B2 B2G2E2:|
